X:1
T: 93rd's Farewell to Gibraltar
C:
R:Reel
I:speed 232
Q:232
K:A
M:4/4
L:1/8
|:cd|e3f e3c|A3B A2ag|f2ec ef ae|c2B2 B2cd|
e3f e3c|A3B A2ag|f2ec ef ae|c2A2 A2:|
|:ag|f2ec ef ae|fa ec B2ag|f2ec ef ae|f2B2 B2ag|
f2ec ef ae|fa ec B2ag|f2ec ef ae|c2A2 A2:|
